!!!OTL: Der Oelberg - Ruf.
!!!ARE: Europa, Mitteleuropa, Deutschland
!!!SCT: A0544
!!!TXL: @@DE
!!!YEM: Copyright 1995, estate of Helmut Schaffrath.
**kern	**text
*M3/2	*
*met(C|3)	*
*clefC3	*
*k[b-]	*
*F:ion	*
=1	=1
!LO:TX:a:t=jon. F.	!
2ryy	.
2ryy	.
{2F	Vnd
=2	=2
1G	Je-
2A	-ſus
=3	=3
1B-	iſt
2c/	ein
=4	=4
*lig	*
2B-	ſüeſ-
2G	.
*Xlig	*
2A	-ſer
=5	=5
1B-}	Nam,
{2B-	vnd
=6	=6
1c	Je-
2c	-ſus
=7	=7
1f	iſt
2e	ein
=8	=8
*lig	*
2d	ſüeſ-
2c	.
*Xlig	*
2d	-ſer
=9	=9
1f}	Nam,
{2c	die
=10	=10
*lig	*
2B-	Jung-
2c/	.
*Xlig	*
2d	-fraw
=11	=11
2c/	Ma-
2c/	-ri-
2B-	-a
=12	=12
2A	růf-
2B-	-fen
2G	wir
=13	=13
1.F/ll}	an.
==	==
!!!GTL: Geistliche Volkslieder
!!!AGN: Romanze, Ballade, Lied, religioeses Lied
!! Beuttner 1602. No. 22.
!!!ONB: ESAC (Essen Associative Code) Database: ALTDEU
!!!AMT: simple triple
!!!AIN: vox
!!!EED: Helmut Schaffrath
!!!EEV: 1.0
!!!RDF**kern: l = terminal long
!!!AMD: Ionian
!!!URL-scan: https://rosdok.uni-rostock.de/mcrviewer/recordIdentifier/rosdok_ppn738218359/iview2/phys_0725.iview2?x=-495.6391625615763&y=1762.6403940692544&scale=0.4629418472063854&rotation=0&layout=singlePageLayout&logicalDiv=log_0007
!!!ENC: Anna Maria Matuszewska
!!!EEV: 2024/20/03
*-	*-
